icons/modern/speaking-head.svg

<svg width="32" height="32" viewBox="0 0 32 32" fill="none" xmlns="http://www.w3.org/2000/svg">
<path d="M23.2267 13.6844C22.8475 13.093 22.7554 12.673 22.7382 12.4245L20.8032 14.6744L23.3152 19.1125C23.3152 18.7782 23.3193 18.1659 23.78 18.007C24.2579 17.8422 24.6988 17.5865 24.8531 16.9694C25.0025 16.3719 24.7074 15.8508 24.5446 15.6194C24.2617 15.1994 23.5736 14.2254 23.2267 13.6844Z" fill="url(#paint0_radial_5559_20839)"/>
<g filter="url(#filter0_i_5559_20839)">
<path d="M5.9194 22.4198L3.53466 29.4848C3.44714 29.7441 3.63999 30.0127 3.91365 30.0127H13.146C13.4039 30.0127 13.6329 29.8479 13.7149 29.6034L14.0264 28.6745C14.1585 28.2805 14.5212 28.0103 14.9362 27.9887C17.8667 27.836 19.8239 27.4586 21.1371 26.6571C22.2228 25.9944 22.7668 24.5347 22.9948 23.6224C23.0424 23.4316 22.9633 23.2341 22.8036 23.1194L20.3891 21.3856C20.2414 21.2796 20.1676 21.0983 20.1992 20.9193C20.2368 20.706 20.4146 20.5455 20.6307 20.5298L22.9056 20.3646C23.1638 20.3458 23.3658 20.1339 23.3698 19.8751C23.3902 18.5437 23.386 15.6973 22.7057 12.1288C21.7032 6.87035 19.9804 4.01613 15.943 3.51472C12.3718 3.00756 7.89938 3.94727 5.54187 5.10897C2.34443 6.68454 1.7281 9.42525 2.52035 13.4402C3.22526 17.0126 4.89713 20.0263 5.82732 21.5785C5.97951 21.8325 6.01409 22.1392 5.9194 22.4198Z" fill="url(#paint1_radial_5559_20839)"/>
<path d="M5.9194 22.4198L3.53466 29.4848C3.44714 29.7441 3.63999 30.0127 3.91365 30.0127H13.146C13.4039 30.0127 13.6329 29.8479 13.7149 29.6034L14.0264 28.6745C14.1585 28.2805 14.5212 28.0103 14.9362 27.9887C17.8667 27.836 19.8239 27.4586 21.1371 26.6571C22.2228 25.9944 22.7668 24.5347 22.9948 23.6224C23.0424 23.4316 22.9633 23.2341 22.8036 23.1194L20.3891 21.3856C20.2414 21.2796 20.1676 21.0983 20.1992 20.9193C20.2368 20.706 20.4146 20.5455 20.6307 20.5298L22.9056 20.3646C23.1638 20.3458 23.3658 20.1339 23.3698 19.8751C23.3902 18.5437 23.386 15.6973 22.7057 12.1288C21.7032 6.87035 19.9804 4.01613 15.943 3.51472C12.3718 3.00756 7.89938 3.94727 5.54187 5.10897C2.34443 6.68454 1.7281 9.42525 2.52035 13.4402C3.22526 17.0126 4.89713 20.0263 5.82732 21.5785C5.97951 21.8325 6.01409 22.1392 5.9194 22.4198Z" fill="url(#paint2_radial_5559_20839)"/>
<path d="M5.9194 22.4198L3.53466 29.4848C3.44714 29.7441 3.63999 30.0127 3.91365 30.0127H13.146C13.4039 30.0127 13.6329 29.8479 13.7149 29.6034L14.0264 28.6745C14.1585 28.2805 14.5212 28.0103 14.9362 27.9887C17.8667 27.836 19.8239 27.4586 21.1371 26.6571C22.2228 25.9944 22.7668 24.5347 22.9948 23.6224C23.0424 23.4316 22.9633 23.2341 22.8036 23.1194L20.3891 21.3856C20.2414 21.2796 20.1676 21.0983 20.1992 20.9193C20.2368 20.706 20.4146 20.5455 20.6307 20.5298L22.9056 20.3646C23.1638 20.3458 23.3658 20.1339 23.3698 19.8751C23.3902 18.5437 23.386 15.6973 22.7057 12.1288C21.7032 6.87035 19.9804 4.01613 15.943 3.51472C12.3718 3.00756 7.89938 3.94727 5.54187 5.10897C2.34443 6.68454 1.7281 9.42525 2.52035 13.4402C3.22526 17.0126 4.89713 20.0263 5.82732 21.5785C5.97951 21.8325 6.01409 22.1392 5.9194 22.4198Z" fill="url(#paint3_radial_5559_20839)"/>
<path d="M5.9194 22.4198L3.53466 29.4848C3.44714 29.7441 3.63999 30.0127 3.91365 30.0127H13.146C13.4039 30.0127 13.6329 29.8479 13.7149 29.6034L14.0264 28.6745C14.1585 28.2805 14.5212 28.0103 14.9362 27.9887C17.8667 27.836 19.8239 27.4586 21.1371 26.6571C22.2228 25.9944 22.7668 24.5347 22.9948 23.6224C23.0424 23.4316 22.9633 23.2341 22.8036 23.1194L20.3891 21.3856C20.2414 21.2796 20.1676 21.0983 20.1992 20.9193C20.2368 20.706 20.4146 20.5455 20.6307 20.5298L22.9056 20.3646C23.1638 20.3458 23.3658 20.1339 23.3698 19.8751C23.3902 18.5437 23.386 15.6973 22.7057 12.1288C21.7032 6.87035 19.9804 4.01613 15.943 3.51472C12.3718 3.00756 7.89938 3.94727 5.54187 5.10897C2.34443 6.68454 1.7281 9.42525 2.52035 13.4402C3.22526 17.0126 4.89713 20.0263 5.82732 21.5785C5.97951 21.8325 6.01409 22.1392 5.9194 22.4198Z" fill="url(#paint4_radial_5559_20839)"/>
<path d="M5.9194 22.4198L3.53466 29.4848C3.44714 29.7441 3.63999 30.0127 3.91365 30.0127H13.146C13.4039 30.0127 13.6329 29.8479 13.7149 29.6034L14.0264 28.6745C14.1585 28.2805 14.5212 28.0103 14.9362 27.9887C17.8667 27.836 19.8239 27.4586 21.1371 26.6571C22.2228 25.9944 22.7668 24.5347 22.9948 23.6224C23.0424 23.4316 22.9633 23.2341 22.8036 23.1194L20.3891 21.3856C20.2414 21.2796 20.1676 21.0983 20.1992 20.9193C20.2368 20.706 20.4146 20.5455 20.6307 20.5298L22.9056 20.3646C23.1638 20.3458 23.3658 20.1339 23.3698 19.8751C23.3902 18.5437 23.386 15.6973 22.7057 12.1288C21.7032 6.87035 19.9804 4.01613 15.943 3.51472C12.3718 3.00756 7.89938 3.94727 5.54187 5.10897C2.34443 6.68454 1.7281 9.42525 2.52035 13.4402C3.22526 17.0126 4.89713 20.0263 5.82732 21.5785C5.97951 21.8325 6.01409 22.1392 5.9194 22.4198Z" fill="url(#paint5_radial_5559_20839)"/>
</g>
<g filter="url(#filter1_i_5559_20839)">
<path d="M26.5057 16.398L24.8786 19.2106C24.7256 19.475 24.79 19.8115 25.0297 20.0008C25.226 20.1557 25.4965 20.1764 25.714 20.053L28.5444 18.4467C28.8026 18.3001 28.8506 17.948 28.641 17.7376L27.214 16.3056C27.005 16.0959 26.6539 16.1417 26.5057 16.398Z" fill="url(#paint6_linear_5559_20839)"/>
</g>
<g filter="url(#filter2_i_5559_20839)">
<path d="M26.5057 26.7833L24.8786 23.9707C24.7256 23.7063 24.79 23.3697 25.0297 23.1805C25.226 23.0255 25.4965 23.0049 25.714 23.1283L28.5444 24.7346C28.8026 24.8812 28.8506 25.2333 28.641 25.4436L27.214 26.8756C27.005 27.0853 26.6539 27.0396 26.5057 26.7833Z" fill="url(#paint7_linear_5559_20839)"/>
</g>
<path d="M29.5003 20.137L26.3609 20.9753C26.0658 21.0541 25.8734 21.3376 25.909 21.641C25.9383 21.8893 26.115 22.0952 26.356 22.1617L29.4932 23.0273C29.7795 23.1062 30.0624 22.8912 30.0629 22.5942L30.0664 20.5726C30.0669 20.2765 29.7863 20.0607 29.5003 20.137Z" fill="#6CDCFF" fill-opacity="0.5"/>
<g filter="url(#filter3_i_5559_20839)">
<path d="M29.5003 20.137L26.3609 20.9753C26.0658 21.0541 25.8734 21.3376 25.909 21.641C25.9383 21.8893 26.115 22.0952 26.356 22.1617L29.4932 23.0273C29.7795 23.1062 30.0624 22.8912 30.0629 22.5942L30.0664 20.5726C30.0669 20.2765 29.7863 20.0607 29.5003 20.137Z" fill="url(#paint8_linear_5559_20839)"/>
</g>
<defs>
<filter id="filter0_i_5559_20839" x="1.9085" y="3.37393" width="21.4666" height="26.6388" filterUnits="userSpaceOnUse" color-interpolation-filters="sRGB">
<feFlood flood-opacity="0" result="BackgroundImageFix"/>
<feBlend mode="normal" in="SourceGraphic" in2="BackgroundImageFix" result="shape"/>
<feColorMatrix in="SourceAlpha" type="matrix" values="0 0 0 0 0 0 0 0 0 0 0 0 0 0 0 0 0 0 127 0" result="hardAlpha"/>
<feOffset dx="-0.3"/>
<feGaussianBlur stdDeviation="0.15"/>
<feComposite in2="hardAlpha" operator="arithmetic" k2="-1" k3="1"/>
<feColorMatrix type="matrix" values="0 0 0 0 0.258824 0 0 0 0 0.25098 0 0 0 0 0.270588 0 0 0 1 0"/>
<feBlend mode="normal" in2="shape" result="effect1_innerShadow_5559_20839"/>
</filter>
<filter id="filter1_i_5559_20839" x="24.6959" y="16.1732" width="4.07643" height="4.05978" filterUnits="userSpaceOnUse" color-interpolation-filters="sRGB">
<feFlood flood-opacity="0" result="BackgroundImageFix"/>
<feBlend mode="normal" in="SourceGraphic" in2="BackgroundImageFix" result="shape"/>
<feColorMatrix in="SourceAlpha" type="matrix" values="0 0 0 0 0 0 0 0 0 0 0 0 0 0 0 0 0 0 127 0" result="hardAlpha"/>
<feOffset dx="-0.1" dy="0.1"/>
<feGaussianBlur stdDeviation="0.15"/>
<feComposite in2="hardAlpha" operator="arithmetic" k2="-1" k3="1"/>
<feColorMatrix type="matrix" values="0 0 0 0 0.254902 0 0 0 0 0.219608 0 0 0 0 0.301961 0 0 0 1 0"/>
<feBlend mode="normal" in2="shape" result="effect1_innerShadow_5559_20839"/>
</filter>
<filter id="filter2_i_5559_20839" x="24.6959" y="23.0482" width="4.07643" height="4.05978" filterUnits="userSpaceOnUse" color-interpolation-filters="sRGB">
<feFlood flood-opacity="0" result="BackgroundImageFix"/>
<feBlend mode="normal" in="SourceGraphic" in2="BackgroundImageFix" result="shape"/>
<feColorMatrix in="SourceAlpha" type="matrix" values="0 0 0 0 0 0 0 0 0 0 0 0 0 0 0 0 0 0 127 0" result="hardAlpha"/>
<feOffset dx="-0.1" dy="0.1"/>
<feGaussianBlur stdDeviation="0.15"/>
<feComposite in2="hardAlpha" operator="arithmetic" k2="-1" k3="1"/>
<feColorMatrix type="matrix" values="0 0 0 0 0.254902 0 0 0 0 0.219608 0 0 0 0 0.301961 0 0 0 1 0"/>
<feBlend mode="normal" in2="shape" result="effect1_innerShadow_5559_20839"/>
</filter>
<filter id="filter3_i_5559_20839" x="25.8048" y="20.1216" width="4.26162" height="3.02218" filterUnits="userSpaceOnUse" color-interpolation-filters="sRGB">
<feFlood flood-opacity="0" result="BackgroundImageFix"/>
<feBlend mode="normal" in="SourceGraphic" in2="BackgroundImageFix" result="shape"/>
<feColorMatrix in="SourceAlpha" type="matrix" values="0 0 0 0 0 0 0 0 0 0 0 0 0 0 0 0 0 0 127 0" result="hardAlpha"/>
<feOffset dx="-0.1" dy="0.1"/>
<feGaussianBlur stdDeviation="0.15"/>
<feComposite in2="hardAlpha" operator="arithmetic" k2="-1" k3="1"/>
<feColorMatrix type="matrix" values="0 0 0 0 0.254902 0 0 0 0 0.219608 0 0 0 0 0.301961 0 0 0 1 0"/>
<feBlend mode="normal" in2="shape" result="effect1_innerShadow_5559_20839"/>
</filter>
<radialGradient id="paint0_radial_5559_20839" cx="0" cy="0" r="1" gradientUnits="userSpaceOnUse" gradientTransform="translate(22.8487 15.7685) rotate(63.2024) scale(3.35686 2.05329)">
<stop offset="0.37376" stop-color="#3B3540"/>
<stop offset="1" stop-color="#0E0514"/>
</radialGradient>
<radialGradient id="paint1_radial_5559_20839" cx="0" cy="0" r="1" gradientUnits="userSpaceOnUse" gradientTransform="translate(20.2683 6.20238) rotate(116.409) scale(20.516 16.3016)">
<stop stop-color="#392A48"/>
<stop offset="1" stop-color="#18141B"/>
</radialGradient>
<radialGradient id="paint2_radial_5559_20839" cx="0" cy="0" r="1" gradientUnits="userSpaceOnUse" gradientTransform="translate(9.89331 30.3274) rotate(-72.4465) scale(6.42414 3.37229)">
<stop offset="0.432371" stop-color="#26202B"/>
<stop offset="1" stop-color="#26202B" stop-opacity="0"/>
</radialGradient>
<radialGradient id="paint3_radial_5559_20839" cx="0" cy="0" r="1" gradientUnits="userSpaceOnUse" gradientTransform="translate(21.4246 21.1711) rotate(-159.085) scale(5.25233 5.48798)">
<stop stop-color="#342F38"/>
<stop offset="1" stop-color="#342F38" stop-opacity="0"/>
</radialGradient>
<radialGradient id="paint4_radial_5559_20839" cx="0" cy="0" r="1" gradientUnits="userSpaceOnUse" gradientTransform="translate(19.2371 10.9211) rotate(79.0019) scale(9.00922 5.54307)">
<stop stop-color="#453D4F"/>
<stop offset="1" stop-color="#453D4F" stop-opacity="0"/>
</radialGradient>
<radialGradient id="paint5_radial_5559_20839" cx="0" cy="0" r="1" gradientUnits="userSpaceOnUse" gradientTransform="translate(15.7058 3.37393) rotate(90) scale(2.57845 6.0625)">
<stop stop-color="#3E334A"/>
<stop offset="1" stop-color="#3E334A" stop-opacity="0"/>
</radialGradient>
<linearGradient id="paint6_linear_5559_20839" x1="28.015" y1="17.0981" x2="25.0349" y2="20.133" gradientUnits="userSpaceOnUse">
<stop stop-color="#2A1C38"/>
<stop offset="1" stop-color="#291C36"/>
</linearGradient>
<linearGradient id="paint7_linear_5559_20839" x1="28.015" y1="26.0831" x2="25.0349" y2="23.0482" gradientUnits="userSpaceOnUse">
<stop stop-color="#2A1C38"/>
<stop offset="1" stop-color="#291C36"/>
</linearGradient>
<linearGradient id="paint8_linear_5559_20839" x1="30.0724" y1="21.6994" x2="25.8192" y2="21.7381" gradientUnits="userSpaceOnUse">
<stop stop-color="#2A1C38"/>
<stop offset="1" stop-color="#291C36"/>
</linearGradient>
</defs>
</svg>

<svg width="32" height="32" fill="none" xmlns="http://www.w3.org/2000/svg"><path d="M23.227 13.684c-.38-.591-.472-1.011-.489-1.26l-1.935 2.25 2.512 4.439c0-.335.004-.947.465-1.106.478-.165.919-.42 1.073-1.038.15-.597-.146-1.118-.308-1.35-.283-.42-.971-1.394-1.318-1.935Z" fill="url(#a)"/><g filter="url(#b)"><path d="m5.92 22.42-2.385 7.065a.4.4 0 0 0 .379.528h9.232a.6.6 0 0 0 .569-.41l.311-.929c.133-.393.495-.664.91-.685 2.93-.153 4.888-.53 6.201-1.332 1.086-.663 1.63-2.122 1.858-3.035a.479.479 0 0 0-.191-.503l-2.415-1.733a.473.473 0 0 1 .242-.856l2.275-.165a.5.5 0 0 0 .464-.49c.02-1.331.016-4.178-.664-7.746-1.003-5.259-2.726-8.113-6.763-8.614-3.571-.507-8.044.432-10.401 1.594C2.344 6.685 1.728 9.425 2.52 13.44c.705 3.573 2.377 6.586 3.307 8.138.153.255.187.561.092.842Z" fill="url(#c)"/><path d="m5.92 22.42-2.385 7.065a.4.4 0 0 0 .379.528h9.232a.6.6 0 0 0 .569-.41l.311-.929c.133-.393.495-.664.91-.685 2.93-.153 4.888-.53 6.201-1.332 1.086-.663 1.63-2.122 1.858-3.035a.479.479 0 0 0-.191-.503l-2.415-1.733a.473.473 0 0 1 .242-.856l2.275-.165a.5.5 0 0 0 .464-.49c.02-1.331.016-4.178-.664-7.746-1.003-5.259-2.726-8.113-6.763-8.614-3.571-.507-8.044.432-10.401 1.594C2.344 6.685 1.728 9.425 2.52 13.44c.705 3.573 2.377 6.586 3.307 8.138.153.255.187.561.092.842Z" fill="url(#d)"/><path d="m5.92 22.42-2.385 7.065a.4.4 0 0 0 .379.528h9.232a.6.6 0 0 0 .569-.41l.311-.929c.133-.393.495-.664.91-.685 2.93-.153 4.888-.53 6.201-1.332 1.086-.663 1.63-2.122 1.858-3.035a.479.479 0 0 0-.191-.503l-2.415-1.733a.473.473 0 0 1 .242-.856l2.275-.165a.5.5 0 0 0 .464-.49c.02-1.331.016-4.178-.664-7.746-1.003-5.259-2.726-8.113-6.763-8.614-3.571-.507-8.044.432-10.401 1.594C2.344 6.685 1.728 9.425 2.52 13.44c.705 3.573 2.377 6.586 3.307 8.138.153.255.187.561.092.842Z" fill="url(#e)"/><path d="m5.92 22.42-2.385 7.065a.4.4 0 0 0 .379.528h9.232a.6.6 0 0 0 .569-.41l.311-.929c.133-.393.495-.664.91-.685 2.93-.153 4.888-.53 6.201-1.332 1.086-.663 1.63-2.122 1.858-3.035a.479.479 0 0 0-.191-.503l-2.415-1.733a.473.473 0 0 1 .242-.856l2.275-.165a.5.5 0 0 0 .464-.49c.02-1.331.016-4.178-.664-7.746-1.003-5.259-2.726-8.113-6.763-8.614-3.571-.507-8.044.432-10.401 1.594C2.344 6.685 1.728 9.425 2.52 13.44c.705 3.573 2.377 6.586 3.307 8.138.153.255.187.561.092.842Z" fill="url(#f)"/><path d="m5.92 22.42-2.385 7.065a.4.4 0 0 0 .379.528h9.232a.6.6 0 0 0 .569-.41l.311-.929c.133-.393.495-.664.91-.685 2.93-.153 4.888-.53 6.201-1.332 1.086-.663 1.63-2.122 1.858-3.035a.479.479 0 0 0-.191-.503l-2.415-1.733a.473.473 0 0 1 .242-.856l2.275-.165a.5.5 0 0 0 .464-.49c.02-1.331.016-4.178-.664-7.746-1.003-5.259-2.726-8.113-6.763-8.614-3.571-.507-8.044.432-10.401 1.594C2.344 6.685 1.728 9.425 2.52 13.44c.705 3.573 2.377 6.586 3.307 8.138.153.255.187.561.092.842Z" fill="url(#g)"/></g><g filter="url(#h)"><path d="m26.506 16.398-1.627 2.813a.615.615 0 0 0 .835.842l2.83-1.606a.45.45 0 0 0 .097-.71l-1.427-1.431a.45.45 0 0 0-.708.092Z" fill="url(#i)"/></g><g filter="url(#j)"><path d="m26.506 26.783-1.627-2.812a.615.615 0 0 1 .835-.843l2.83 1.607a.45.45 0 0 1 .097.709l-1.427 1.432a.45.45 0 0 1-.708-.093Z" fill="url(#k)"/></g><path d="m29.5 20.137-3.14.838a.615.615 0 0 0-.004 1.187l3.137.865a.45.45 0 0 0 .57-.433l.003-2.021a.45.45 0 0 0-.566-.436Z" fill="#6CDCFF" fill-opacity=".5"/><g filter="url(#l)"><path d="m29.5 20.137-3.14.838a.615.615 0 0 0-.004 1.187l3.137.865a.45.45 0 0 0 .57-.433l.003-2.021a.45.45 0 0 0-.566-.436Z" fill="url(#m)"/></g><defs><radialGradient id="a" cx="0" cy="0" r="1" gradientUnits="userSpaceOnUse" gradientTransform="rotate(63.202 -1.39 26.453) scale(3.35686 2.05329)"><stop offset=".374" stop-color="#3B3540"/><stop offset="1" stop-color="#0E0514"/></radialGradient><radialGradient id="c" cx="0" cy="0" r="1" gradientUnits="userSpaceOnUse" gradientTransform="rotate(116.409 8.212 9.384) scale(20.516 16.3016)"><stop stop-color="#392A48"/><stop offset="1" stop-color="#18141B"/></radialGradient><radialGradient id="d" cx="0" cy="0" r="1" gradientUnits="userSpaceOnUse" gradientTransform="matrix(1.9375 -6.125 3.21526 1.01707 9.893 30.327)"><stop offset=".432" stop-color="#26202B"/><stop offset="1" stop-color="#26202B" stop-opacity="0"/></radialGradient><radialGradient id="e" cx="0" cy="0" r="1" gradientUnits="userSpaceOnUse" gradientTransform="rotate(-159.085 12.666 8.608) scale(5.25233 5.48798)"><stop stop-color="#342F38"/><stop offset="1" stop-color="#342F38" stop-opacity="0"/></radialGradient><radialGradient id="f" cx="0" cy="0" r="1" gradientUnits="userSpaceOnUse" gradientTransform="rotate(79.002 2.995 17.128) scale(9.00922 5.54307)"><stop stop-color="#453D4F"/><stop offset="1" stop-color="#453D4F" stop-opacity="0"/></radialGradient><radialGradient id="g" cx="0" cy="0" r="1" gradientUnits="userSpaceOnUse" gradientTransform="matrix(0 2.57845 -6.0625 0 15.706 3.374)"><stop stop-color="#3E334A"/><stop offset="1" stop-color="#3E334A" stop-opacity="0"/></radialGradient><filter id="b" x="1.909" y="3.374" width="21.467" height="26.639" filterUnits="userSpaceOnUse" color-interpolation-filters="sRGB"><feFlood flood-opacity="0" result="BackgroundImageFix"/><feBlend in="SourceGraphic" in2="BackgroundImageFix" result="shape"/><feColorMatrix in="SourceAlpha" values="0 0 0 0 0 0 0 0 0 0 0 0 0 0 0 0 0 0 127 0" result="hardAlpha"/><feOffset dx="-.3"/><feGaussianBlur stdDeviation=".15"/><feComposite in2="hardAlpha" operator="arithmetic" k2="-1" k3="1"/><feColorMatrix values="0 0 0 0 0.258824 0 0 0 0 0.25098 0 0 0 0 0.270588 0 0 0 1 0"/><feBlend in2="shape" result="effect1_innerShadow_5559_20839"/></filter><filter id="h" x="24.696" y="16.173" width="4.076" height="4.06" filterUnits="userSpaceOnUse" color-interpolation-filters="sRGB"><feFlood flood-opacity="0" result="BackgroundImageFix"/><feBlend in="SourceGraphic" in2="BackgroundImageFix" result="shape"/><feColorMatrix in="SourceAlpha" values="0 0 0 0 0 0 0 0 0 0 0 0 0 0 0 0 0 0 127 0" result="hardAlpha"/><feOffset dx="-.1" dy=".1"/><feGaussianBlur stdDeviation=".15"/><feComposite in2="hardAlpha" operator="arithmetic" k2="-1" k3="1"/><feColorMatrix values="0 0 0 0 0.254902 0 0 0 0 0.219608 0 0 0 0 0.301961 0 0 0 1 0"/><feBlend in2="shape" result="effect1_innerShadow_5559_20839"/></filter><filter id="j" x="24.696" y="23.048" width="4.076" height="4.06" filterUnits="userSpaceOnUse" color-interpolation-filters="sRGB"><feFlood flood-opacity="0" result="BackgroundImageFix"/><feBlend in="SourceGraphic" in2="BackgroundImageFix" result="shape"/><feColorMatrix in="SourceAlpha" values="0 0 0 0 0 0 0 0 0 0 0 0 0 0 0 0 0 0 127 0" result="hardAlpha"/><feOffset dx="-.1" dy=".1"/><feGaussianBlur stdDeviation=".15"/><feComposite in2="hardAlpha" operator="arithmetic" k2="-1" k3="1"/><feColorMatrix values="0 0 0 0 0.254902 0 0 0 0 0.219608 0 0 0 0 0.301961 0 0 0 1 0"/><feBlend in2="shape" result="effect1_innerShadow_5559_20839"/></filter><filter id="l" x="25.805" y="20.122" width="4.262" height="3.022" filterUnits="userSpaceOnUse" color-interpolation-filters="sRGB"><feFlood flood-opacity="0" result="BackgroundImageFix"/><feBlend in="SourceGraphic" in2="BackgroundImageFix" result="shape"/><feColorMatrix in="SourceAlpha" values="0 0 0 0 0 0 0 0 0 0 0 0 0 0 0 0 0 0 127 0" result="hardAlpha"/><feOffset dx="-.1" dy=".1"/><feGaussianBlur stdDeviation=".15"/><feComposite in2="hardAlpha" operator="arithmetic" k2="-1" k3="1"/><feColorMatrix values="0 0 0 0 0.254902 0 0 0 0 0.219608 0 0 0 0 0.301961 0 0 0 1 0"/><feBlend in2="shape" result="effect1_innerShadow_5559_20839"/></filter><linearGradient id="i" x1="28.015" y1="17.098" x2="25.035" y2="20.133" gradientUnits="userSpaceOnUse"><stop stop-color="#2A1C38"/><stop offset="1" stop-color="#291C36"/></linearGradient><linearGradient id="k" x1="28.015" y1="26.083" x2="25.035" y2="23.048" gradientUnits="userSpaceOnUse"><stop stop-color="#2A1C38"/><stop offset="1" stop-color="#291C36"/></linearGradient><linearGradient id="m" x1="30.072" y1="21.699" x2="25.819" y2="21.738" gradientUnits="userSpaceOnUse"><stop stop-color="#2A1C38"/><stop offset="1" stop-color="#291C36"/></linearGradient></defs></svg>
